X:11413
T:Mulvihill's
Z: id:dc-reel-234
M:C
L:1/8
K:D Major
dB|AFF2 G2FG|ADFD EGFE|D2FA defe|dBAF E2dB|!
AFF2 G2FG|ADFD EGFE|D2FA defe|dBAF D2:|!
de|f2fa g2fg|afdf edBe|f3e defe|dBAF E2fg|!
aff2 bff2|afdf efde|f3e defe|dBAF D2:|!
